X:5
%%etbk:tnset id:2,pos:2,rep:3x,ant:
%%etbk:wsite http://www.thesession.org/tunes/display/10965
%%etbk:wsite http://www.youtube.com/watch?v=uO7K1qokKt0
%%etbk:video src:ytube,cde:pe__q4zIrAY,desc:
%%etbk:video src:ytube,cde:uO7K1qokKt0,desc:
%%etbk:skill ?
%%etbk:pldat 2013-11-17T15:32,2013-11-07T15:18,2013-11-05T18:01,2013-10-08T16:50,2013-10-02T16:51,2013-08-26T18:33,2013-05-10T15:38
T: Contentment Is Wealth
T: Gorman's
N: http://www.thesession.org/discussions/display/28476/
Z: Piano Box Version by Martin Fleischmann
H: Created 2013-02-19 /  Last Modified 2013-03-28
M: 4/4
L: 1/8
R: Reel
K: Cmix
|: "C"!2!G3 F !2!G!5!cc!3!A | "Bb"!4!B!5!d!4!B!2!F !1!D!2!E!3!F!1!D | "C"!2!G3 F GccA | "Bb"!4!B!3!G!2!F!1!D "C"{G}!2!E!1!CC2 :|
|: "C"!2!G!4!cc!3!=B !4!c2!1!G!2!A | "Bb"!3!B!4!c!3!d!4!e !5!f!3!d!2!c!1!=B | "C"!1!G!3!cc!2!=B !3!c2!1!GA | "Bb"!3!B!1!G!3!F!1!D "C"!2!E!1!CC2 |
"C"!2!G!4!cc!3!=B !4!c2!1!G!2!A | "Bb"!3!B!4!c!1!d!2!e !3!f2!4!g!3!f | "C"!2!e!1!c{f}!2!d!1!c !4!c2!5!d!4!c | "Bb"!3!B!1!G!3!F!1!D "C"!2!E!1!CC2 :|
